X:66
T:The Fishes (b)
M:6/8
L:1/8
Q:1/4=100
K:Eb
B2|\
BcB EGB|cdc F2E/E/|DFA ddc|BcA GGA|
B2c/ AG/E2|c2d/ cA/F2|DFA d2c|B/A2 DF/E2||
